annanekrasova/img/titles/portfolio.svg

<svg width="195" height="200" viewBox="0 0 195 200" fill="none" xmlns="http://www.w3.org/2000/svg">
<path d="M106.01 2.14842L101.278 1.71339L99.7932 18.5681L101.753 18.7483L102.265 12.9388L105.037 13.1936C109.291 13.5847 112.091 12.7093 112.481 8.28647C112.868 3.88751 110.264 2.5395 106.01 2.14842ZM105.208 11.5223L102.412 11.2652L103.091 3.56707L105.887 3.82413C108.755 4.08778 110.811 4.80709 110.521 8.10631C110.226 11.4533 108.076 11.786 105.208 11.5223Z" fill="#B12B00"/>
<path d="M115.927 11.9198C114.526 16.6613 116.257 21.1373 121.028 22.6076C125.752 24.0638 129.618 21.3125 131.018 16.5711C132.412 11.8526 130.681 7.37657 125.957 5.92041C121.186 4.4501 117.321 7.20136 115.927 11.9198ZM117.808 12.4995C118.95 8.63262 121.651 6.3511 125.481 7.53159C129.288 8.705 130.28 12.1246 129.138 15.9914C127.989 19.8813 125.311 22.1699 121.504 20.9964C117.673 19.816 116.659 16.3893 117.808 12.4995Z" fill="#B12B00"/>
<path d="M130.947 26.0116L132.66 26.9797L135.895 21.0073L143.292 25.1868L140.057 31.1593L141.771 32.1274L144.799 26.5348C145.222 25.754 145.071 25.2274 144.235 24.7551L142.48 23.7634L142.754 23.2569C144.49 23.8798 146.177 23.5373 147.388 21.3003C149.194 17.9658 147.404 15.8795 143.894 13.896L139.004 11.1332L130.947 26.0116ZM136.695 19.53L139.918 13.5786L143.094 15.3732C145.601 16.79 147.001 17.8841 145.515 20.6276C144.041 23.35 142.378 22.7414 139.871 21.3246L136.695 19.53Z" fill="#B12B00"/>
<path d="M163.984 28.5438L153.473 19.7501L152.422 21.0608L156.951 24.8493L147.417 36.7389L148.908 37.9863L158.441 26.0967L162.933 29.8544L163.984 28.5438Z" fill="#B12B00"/>
<path d="M154.895 43.5661L156.158 45.0751L161.273 40.6063L166.766 46.4185L168.049 45.2973L162.557 39.4851L167.636 35.0479L173.491 42.0408L174.756 40.9355L167.638 32.4336L154.895 43.5661Z" fill="#B12B00"/>
<path d="M170.24 49.0159C165.963 51.495 164.124 55.944 166.548 60.308C168.949 64.63 173.631 65.3002 177.908 62.8211C182.165 60.3541 184.003 55.905 181.603 51.583C179.179 47.2191 174.497 46.5488 170.24 49.0159ZM171.196 50.7363C174.684 48.7145 178.203 48.9217 180.149 52.4254C182.084 55.9082 180.441 59.0789 176.953 61.1007C173.444 63.1345 169.936 62.9484 168.002 59.4656C166.056 55.9618 167.687 52.7701 171.196 50.7363Z" fill="#B12B00"/>
<path d="M171.624 71.3372L174.65 79.8389L176.241 79.2976L173.371 71.275L188.025 66.2869L187.415 64.4159L172.534 69.4814C171.67 69.7753 171.311 70.4551 171.624 71.3372Z" fill="#B12B00"/>
<path d="M191.697 89.1295L193.355 88.8558L191.866 79.4449L190.208 79.7185L190.801 83.464L177.422 85.6726L176.83 81.9272L175.172 82.2008L176.661 91.6118L178.319 91.3381L177.73 87.6164L191.109 85.4078L191.697 89.1295Z" fill="#B12B00"/>
<path d="M185.44 93.0618C180.497 92.9798 176.683 95.845 176.604 100.836C176.525 105.78 180.246 108.77 185.19 108.852C190.109 108.933 193.923 106.068 194.001 101.125C194.081 96.1335 190.36 93.1434 185.44 93.0618ZM185.409 95.0295C189.441 95.0964 192.385 97.0895 192.322 101.097C192.258 105.08 189.252 106.951 185.221 106.884C181.165 106.817 178.22 104.848 178.284 100.864C178.347 96.8567 181.354 94.9623 185.409 95.0295Z" fill="#B12B00"/>
<path d="M178.841 121.762L178.338 123.289C179.7 123.758 179.739 124.482 179.536 125.097C178.987 126.761 176.676 127.641 175.954 129.829C175.533 131.105 175.929 132.815 178.222 133.604L178.725 132.076C177.363 131.608 177.302 130.876 177.505 130.261C178.046 128.62 180.365 127.717 181.086 125.529C181.5 124.275 181.134 122.551 178.841 121.762Z" fill="#B12B00"/>
<path d="M176.809 155.678L179.514 151.771L165.799 141.862L164.679 143.48L169.406 146.895L167.821 149.184C165.389 152.696 164.759 155.586 168.358 158.187C171.938 160.773 174.377 159.19 176.809 155.678ZM169.169 150.188L170.768 147.879L177.032 152.405L175.433 154.713C173.794 157.081 172.163 158.508 169.479 156.569C166.755 154.601 167.53 152.555 169.169 150.188Z" fill="#B12B00"/>
<path d="M163.626 159.607C160.268 155.978 155.602 155.246 152.011 158.714C148.454 162.148 148.907 166.947 152.265 170.576C155.606 174.187 160.272 174.919 163.829 171.485C167.42 168.017 166.967 163.218 163.626 159.607ZM162.21 160.974C164.948 163.933 165.571 167.468 162.688 170.252C159.821 173.019 156.419 172.168 153.68 169.209C150.926 166.232 150.286 162.714 153.152 159.947C156.035 157.163 159.455 157.997 162.21 160.974Z" fill="#B12B00"/>
<path d="M144.09 165.821L142.421 166.863L145.911 172.69L138.706 177.193L135.217 171.366L133.548 172.409L136.815 177.865C137.272 178.627 137.795 178.753 138.609 178.244L140.318 177.176L140.614 177.67C139.228 178.904 138.688 180.571 139.995 182.754C141.943 186.007 144.602 185.449 148.021 183.312L152.784 180.336L144.09 165.821ZM146.774 174.132L150.252 179.938L147.158 181.871C144.716 183.397 143.094 184.099 141.491 181.423C139.901 178.767 141.238 177.591 143.681 176.065L146.774 174.132Z" fill="#B12B00"/>
<path d="M125.47 193.977L138.241 189.006L137.654 187.432L132.152 189.573L126.825 175.294L125.013 176L130.34 190.278L124.883 192.403L125.47 193.977Z" fill="#B12B00"/>
<path d="M117.331 178.522L115.397 178.885L116.599 185.57L108.829 187.516L109.131 189.193L116.901 187.247L118.094 193.885L109.131 195.566L109.428 197.22L120.326 195.175L117.331 178.522Z" fill="#B12B00"/>
<path d="M104.907 189.505C104.985 184.562 102.118 180.746 97.1262 180.663C92.1829 180.581 89.1954 184.3 89.1169 189.243C89.0387 194.163 91.9064 197.979 96.8497 198.061C101.841 198.143 104.829 194.424 104.907 189.505ZM102.939 189.472C102.875 193.504 100.884 196.447 96.8764 196.381C92.893 196.315 91.0205 193.307 91.0846 189.276C91.149 185.22 93.1161 182.276 97.0995 182.343C101.107 182.409 103.003 185.417 102.939 189.472Z" fill="#B12B00"/>
<path d="M85.3234 179.697L76.4367 178.122L76.1131 179.77L84.506 181.245L81.5237 196.435L83.4517 196.83L86.4802 181.404C86.6559 180.509 86.245 179.861 85.3234 179.697Z" fill="#B12B00"/>
<path d="M60.1543 188.243L59.5744 189.819L68.4699 193.233L69.0498 191.656L65.5096 190.298L70.1902 177.571L73.7305 178.93L74.3104 177.353L65.4148 173.939L64.8349 175.516L68.3528 176.866L63.6722 189.592L60.1543 188.243Z" fill="#B12B00"/>
<path d="M60.0121 180.923C62.4856 176.642 61.8632 171.868 57.588 169.291C53.354 166.738 48.9613 168.489 46.4878 172.769C44.0263 177.029 44.6487 181.804 48.8827 184.356C53.1579 186.934 57.5506 185.183 60.0121 180.923ZM58.3267 179.907C56.3094 183.398 53.1557 184.971 49.7232 182.902C46.3114 180.845 46.156 177.277 48.1732 173.786C50.2024 170.274 53.3356 168.688 56.7475 170.745C60.18 172.815 60.3559 176.395 58.3267 179.907Z" fill="#B12B00"/>
<path d="M38.9799 160.669L37.9263 159.454C36.8586 160.42 36.2225 160.09 35.798 159.6C34.65 158.277 35.0357 155.792 33.5261 154.052C32.6454 153.036 30.9943 152.524 29.197 154.151L30.2506 155.365C31.3183 154.399 31.9721 154.713 32.3967 155.203C33.5289 156.508 33.159 159.011 34.6686 160.752C35.5335 161.749 37.1826 162.295 38.9799 160.669Z" fill="#B12B00"/>
<path d="M11.3222 142.023L13.2994 146.345L28.5686 139.055L27.7498 137.265L22.4868 139.778L21.3285 137.246C19.551 133.362 17.4047 131.382 13.3979 133.294C9.41273 135.197 9.54481 138.139 11.3222 142.023ZM19.8024 137.948L20.9707 140.502L13.9967 143.831L12.8284 141.278C11.6301 138.659 11.2278 136.511 14.2167 135.084C17.2489 133.636 18.6041 135.33 19.8024 137.948Z" fill="#B12B00"/>
<path d="M14.6265 128.307C19.4292 127.134 22.4221 123.389 21.2841 118.528C20.157 113.714 15.8292 111.758 11.0264 112.931C6.24697 114.099 3.2541 117.844 4.38116 122.657C5.51917 127.518 9.84701 129.475 14.6265 128.307ZM14.1778 126.391C10.261 127.348 6.92686 126.161 6.01317 122.259C5.10495 118.38 7.55824 115.804 11.4751 114.847C15.4152 113.885 18.7439 115.048 19.6521 118.927C20.5658 122.829 18.118 125.428 14.1778 126.391Z" fill="#B12B00"/>
<path d="M19.1044 107.968L19.0587 106.001L12.2687 106.166L12.0712 97.6719L18.8613 97.5072L18.8155 95.5398L12.4574 95.6939C11.5697 95.7155 11.1947 96.1087 11.217 97.0684L11.2638 99.0839L10.688 99.0978C10.3337 97.2819 9.17538 95.9896 6.63213 96.0513C2.84124 96.1432 1.96518 98.7332 2.05887 102.764L2.18936 108.379L19.1044 107.968ZM10.5892 106.206L3.82314 106.37L3.73838 102.723C3.67146 99.8442 3.89467 98.0862 7.01375 98.0106C10.1088 97.9355 10.4375 99.6801 10.5044 102.559L10.5892 106.206Z" fill="#B12B00"/>
<path d="M4.23907 77.6365L2.09746 91.1722L3.75502 91.4458L4.67768 85.6143L19.7142 88.0966L20.018 86.1765L4.98148 83.6942L5.89663 77.9102L4.23907 77.6365Z" fill="#B12B00"/>
<path d="M21.6415 78.0304L22.2823 76.1696L15.8904 73.873L18.0409 66.1542L16.4373 65.578L14.2868 73.2968L7.94002 71.0163L10.9095 62.3933L9.3285 61.8252L5.71819 72.309L21.6415 78.0304Z" fill="#B12B00"/>
<path d="M18.5207 61.7367C22.7716 64.2611 27.4598 63.6405 29.9291 59.302C32.3748 55.0053 30.5834 50.5366 26.3325 48.0121C22.1022 45.4998 17.4141 46.1205 14.9685 50.4173C12.4991 54.7557 14.2905 59.2244 18.5207 61.7367ZM19.4942 60.0263C16.0275 57.9675 14.4303 54.7584 16.413 51.2751C18.3837 47.8127 21.8922 47.6636 25.359 49.7224C28.8464 51.7935 30.4554 54.9817 28.4847 58.4442C26.502 61.9275 22.9816 62.0974 19.4942 60.0263Z" fill="#B12B00"/>
<path d="M36.5167 49.1434L42.2198 42.1395L40.9691 41.0179L35.5944 47.6396L24.0696 37.3047L22.7868 38.7972L34.4903 49.2923C35.1693 49.9012 35.9244 49.8693 36.5167 49.1434Z" fill="#B12B00"/>
<path d="M41.5422 22.4755L40.4819 21.1724L33.2185 27.339L34.2789 28.6422L37.1696 26.1879L45.728 36.7058L42.8373 39.1601L43.8977 40.4632L51.161 34.2965L50.1007 32.9934L47.2283 35.4321L38.6698 24.9142L41.5422 22.4755Z" fill="#B12B00"/>
<path d="M47.9176 25.9763C50.328 30.2929 54.6949 32.1087 59.0082 29.5957C63.2801 27.1068 63.9729 22.3429 61.5625 18.0263C59.1638 13.7307 54.7968 11.9148 50.525 14.4037C46.2117 16.9168 45.5188 21.6806 47.9176 25.9763ZM49.618 24.9856C47.6522 21.4652 47.881 17.8882 51.3441 15.8705C54.7864 13.8649 57.8963 15.4967 59.8621 19.017C61.8396 22.5583 61.6315 26.1232 58.1892 28.1289C54.7261 30.1466 51.5955 28.5269 49.618 24.9856Z" fill="#B12B00"/>
<path d="M75.5924 17.2328L77.1661 16.9026C76.8822 15.4908 77.4878 15.094 78.122 14.9609C79.8367 14.6011 81.7655 16.158 84.0204 15.6848C85.3357 15.4088 86.6121 14.2091 86.1342 11.8327L84.5605 12.1629C84.8444 13.5747 84.2435 13.995 83.6093 14.1281C81.9182 14.483 79.9659 12.931 77.711 13.4042C76.4191 13.6753 75.1145 14.8564 75.5924 17.2328Z" fill="#B12B00"/>
</svg>

<svg width="195" height="200" fill="none" xmlns="http://www.w3.org/2000/svg"><path d="M106.01 2.148l-4.732-.435-1.485 16.855 1.96.18.512-5.81 2.772.256c4.254.39 7.054-.485 7.444-4.908.387-4.398-2.217-5.746-6.471-6.138zm-.802 9.374l-2.796-.257.679-7.698 2.796.257c2.868.264 4.924.983 4.634 4.282-.295 3.347-2.445 3.68-5.313 3.416zm10.719.398c-1.401 4.741.33 9.217 5.101 10.688 4.724 1.456 8.59-1.296 9.99-6.037 1.394-4.718-.337-9.194-5.061-10.65-4.771-1.47-8.636 1.28-10.03 5.999zm1.881.58c1.142-3.867 3.843-6.149 7.673-4.968 3.807 1.173 4.799 4.593 3.657 8.46-1.149 3.89-3.827 6.178-7.634 5.004-3.831-1.18-4.845-4.607-3.696-8.496zm13.139 13.512l1.713.968 3.235-5.973 7.397 4.18-3.235 5.972 1.714.968 3.028-5.592c.423-.781.272-1.308-.564-1.78l-1.755-.992.274-.506c1.736.623 3.423.28 4.634-1.957 1.806-3.334.016-5.42-3.494-7.404l-4.89-2.763-8.057 14.879zm5.748-6.482l3.223-5.951 3.176 1.794c2.507 1.417 3.907 2.511 2.421 5.255-1.474 2.722-3.137 2.113-5.644.697l-3.176-1.795zm27.289 9.014l-10.511-8.794-1.051 1.31 4.529 3.79-9.534 11.889 1.491 1.247 9.533-11.89 4.492 3.758 1.051-1.31zm-9.089 15.022l1.263 1.51 5.115-4.47 5.493 5.813 1.283-1.122-5.492-5.812 5.079-4.437 5.855 6.993 1.265-1.105-7.118-8.502-12.743 11.132zm15.345 5.45c-4.277 2.479-6.116 6.928-3.692 11.292 2.401 4.322 7.083 4.992 11.36 2.513 4.257-2.467 6.095-6.916 3.695-11.238-2.424-4.364-7.106-5.034-11.363-2.567zm.956 1.72c3.488-2.021 7.007-1.814 8.953 1.69 1.935 3.482.292 6.653-3.196 8.675-3.509 2.034-7.017 1.847-8.951-1.635-1.946-3.504-.315-6.696 3.194-8.73zm.428 20.601l3.026 8.502 1.591-.541-2.87-8.023 14.654-4.988-.61-1.871-14.881 5.065c-.864.294-1.223.974-.91 1.856zm20.073 17.793l1.658-.274-1.489-9.411-1.658.274.593 3.745-13.379 2.209-.592-3.746-1.658.274 1.489 9.41 1.658-.273-.589-3.722 13.379-2.208.588 3.721zm-6.257 3.932c-4.943-.082-8.757 2.783-8.836 7.774-.079 4.944 3.642 7.934 8.586 8.016 4.919.081 8.733-2.784 8.811-7.727.08-4.992-3.641-7.982-8.561-8.063zm-.031 1.968c4.032.066 6.976 2.06 6.913 6.067-.064 3.983-3.07 5.854-7.101 5.787-4.056-.067-7.001-2.036-6.937-6.02.063-4.007 3.07-5.902 7.125-5.835zm-6.568 26.732l-.503 1.527c1.362.469 1.401 1.193 1.198 1.808-.549 1.664-2.86 2.544-3.582 4.732-.421 1.276-.025 2.986 2.268 3.775l.503-1.528c-1.362-.468-1.423-1.2-1.22-1.815.541-1.641 2.86-2.544 3.581-4.732.414-1.254.048-2.978-2.245-3.767zm-2.032 33.916l2.705-3.907-13.715-9.909-1.12 1.618 4.727 3.415-1.585 2.289c-2.432 3.512-3.062 6.402.537 9.003 3.58 2.586 6.019 1.003 8.451-2.509zm-7.64-5.49l1.599-2.309 6.264 4.526-1.599 2.308c-1.639 2.368-3.27 3.795-5.954 1.856-2.724-1.968-1.949-4.014-.31-6.381zm-5.543 9.419c-3.358-3.629-8.024-4.361-11.615-.893-3.557 3.434-3.104 8.233.254 11.862 3.341 3.611 8.007 4.343 11.564.909 3.591-3.468 3.138-8.267-.203-11.878zm-1.416 1.367c2.738 2.959 3.361 6.494.478 9.278-2.867 2.767-6.269 1.916-9.008-1.043-2.754-2.977-3.394-6.495-.528-9.262 2.883-2.784 6.303-1.95 9.058 1.027zm-18.12 4.847l-1.669 1.042 3.49 5.827-7.205 4.503-3.489-5.827-1.669 1.043 3.267 5.456c.457.762.98.888 1.794.379l1.709-1.068.296.494c-1.386 1.234-1.926 2.901-.619 5.084 1.948 3.253 4.607 2.695 8.026.558l4.763-2.976-8.694-14.515zm2.684 8.311l3.478 5.806-3.094 1.933c-2.442 1.526-4.064 2.228-5.667-.448-1.59-2.656-.253-3.832 2.19-5.358l3.093-1.933zm-21.304 19.845l12.771-4.971-.587-1.574-5.502 2.141-5.327-14.279-1.812.706 5.327 14.278-5.457 2.125.587 1.574zm-8.139-15.455l-1.934.363 1.202 6.685-7.77 1.946.302 1.677 7.77-1.946 1.193 6.638-8.963 1.681.297 1.654 10.898-2.045-2.995-16.653zm-12.424 10.983c.078-4.943-2.789-8.759-7.78-8.842-4.944-.082-7.932 3.637-8.01 8.58-.078 4.92 2.79 8.736 7.733 8.818 4.991.082 7.979-3.637 8.057-8.556zm-1.968-.033c-.064 4.032-2.055 6.975-6.063 6.909-3.983-.066-5.856-3.074-5.791-7.105.064-4.056 2.031-7 6.015-6.933 4.007.066 5.903 3.074 5.839 7.129zm-17.616-9.775l-8.886-1.575-.324 1.648 8.393 1.475-2.982 15.19 1.928.395 3.028-15.426c.176-.895-.235-1.543-1.157-1.707zm-25.169 8.546l-.58 1.576 8.896 3.414.58-1.577-3.54-1.358 4.68-12.727 3.54 1.359.58-1.577-8.895-3.414-.58 1.577 3.518 1.35-4.68 12.726-3.519-1.349zm-.142-7.32c2.474-4.281 1.851-9.055-2.424-11.632-4.234-2.553-8.627-.802-11.1 3.478-2.462 4.26-1.84 9.035 2.395 11.587 4.275 2.578 8.668.827 11.13-3.433zm-1.685-1.016c-2.018 3.491-5.171 5.064-8.604 2.995-3.412-2.057-3.567-5.625-1.55-9.116 2.03-3.512 5.163-5.098 8.575-3.041 3.432 2.07 3.608 5.65 1.579 9.162zM38.98 160.669l-1.054-1.215c-1.067.966-1.704.636-2.128.146-1.148-1.323-.762-3.808-2.272-5.548-.88-1.016-2.532-1.528-4.329.099l1.054 1.214c1.067-.966 1.721-.652 2.146-.162 1.132 1.305.762 3.808 2.272 5.549.864.997 2.514 1.543 4.31-.083zm-27.658-18.646l1.977 4.322 15.27-7.29-.82-1.79-5.262 2.513-1.159-2.532c-1.777-3.884-3.923-5.864-7.93-3.952-3.985 1.903-3.853 4.845-2.076 8.729zm8.48-4.075l1.169 2.554-6.974 3.329-1.169-2.553c-1.198-2.619-1.6-4.767 1.389-6.194 3.032-1.448 4.387.246 5.585 2.864zm-5.175-9.641c4.802-1.173 7.795-4.918 6.657-9.779-1.127-4.814-5.455-6.77-10.258-5.597-4.779 1.168-7.772 4.913-6.645 9.726 1.138 4.861 5.466 6.818 10.245 5.65zm-.45-1.916c-3.916.957-7.25-.23-8.164-4.132-.908-3.879 1.545-6.455 5.462-7.412 3.94-.962 7.269.201 8.177 4.08.914 3.902-1.534 6.501-5.474 7.464zm4.927-18.423l-.045-1.967-6.79.165-.198-8.494 6.79-.165-.046-1.967-6.358.154c-.887.022-1.262.415-1.24 1.374l.047 2.016-.576.014c-.354-1.816-1.513-3.108-4.056-3.047-3.79.092-4.667 2.682-4.573 6.713l.13 5.615 16.915-.411zm-8.515-1.762l-6.766.164-.085-3.647c-.067-2.879.157-4.637 3.276-4.712 3.095-.075 3.423 1.67 3.49 4.548l.085 3.647zM4.24 77.636L2.096 91.172l1.658.274.923-5.832 15.036 2.483.304-1.92L4.98 83.694l.916-5.784-1.658-.273zm17.402.394l.64-1.86-6.392-2.297 2.15-7.719-1.603-.576-2.15 7.719-6.347-2.28 2.97-8.624-1.582-.568-3.61 10.484 15.924 5.721zM18.52 61.737c4.252 2.524 8.94 1.904 11.41-2.435 2.445-4.297.653-8.765-3.598-11.29-4.23-2.512-8.918-1.892-11.364 2.405-2.469 4.339-.678 8.807 3.553 11.32zm.974-1.71c-3.466-2.06-5.064-5.269-3.081-8.752 1.97-3.462 5.48-3.611 8.946-1.553 3.487 2.072 5.096 5.26 3.126 8.722-1.983 3.483-5.503 3.653-8.99 1.582zm17.023-10.884l5.703-7.004-1.25-1.121-5.376 6.622L24.07 37.305l-1.283 1.492L34.49 49.292c.68.61 1.434.577 2.027-.149zm5.025-26.667l-1.06-1.304-7.264 6.167 1.06 1.303 2.892-2.454 8.558 10.518-2.89 2.454 1.06 1.303 7.263-6.166-1.06-1.304-2.873 2.44-8.558-10.519 2.872-2.439zm6.376 3.5c2.41 4.317 6.777 6.133 11.09 3.62 4.272-2.49 4.965-7.253 2.554-11.57-2.398-4.295-6.765-6.111-11.037-3.622-4.313 2.513-5.006 7.277-2.607 11.572zm1.7-.99c-1.966-3.52-1.737-7.098 1.726-9.116 3.442-2.005 6.552-.373 8.518 3.147 1.978 3.541 1.77 7.106-1.673 9.112-3.463 2.018-6.593.398-8.571-3.143zm25.974-7.753l1.574-.33c-.284-1.412.322-1.809.956-1.942 1.715-.36 3.644 1.197 5.898.724 1.316-.276 2.592-1.476 2.114-3.852l-1.573.33c.283 1.412-.318 1.832-.952 1.965-1.69.355-3.643-1.197-5.898-.724-1.292.271-2.596 1.452-2.119 3.829z" fill="#B12B00"/></svg>
